5-network/11-websocket/websocket-handshake.svg

<svg xmlns="http://www.w3.org/2000/svg" width="429" height="348" viewBox="0 0 429 348"><defs><style>@import url(https://fonts.googleapis.com/css?family=Open+Sans:bold,italic,bolditalic%7CPT+Mono);@font-face{font-family:&apos;PT Mono&apos;;font-weight:700;font-style:normal;src:local(&apos;PT MonoBold&apos;),url(/font/PTMonoBold.woff2) format(&apos;woff2&apos;),url(/font/PTMonoBold.woff) format(&apos;woff&apos;),url(/font/PTMonoBold.ttf) format(&apos;truetype&apos;)}</style></defs><g id="network" fill="none" fill-rule="evenodd" stroke="none" stroke-width="1"><g id="websocket-handshake.svg"><path id="Rectangle-227" fill="#FFF9EB" stroke="#E8C48E" stroke-width="2" d="M2 16h128v64H2z"/><text id="Browser" fill="#8A704D" font-family="OpenSans-Regular, Open Sans" font-size="14" font-weight="normal"><tspan x="40" y="49">Browser</tspan></text><path id="Rectangle-228" fill="#FFF9EB" stroke="#E8C48E" stroke-width="2" d="M298 16h128v64H298z"/><text id="Server" fill="#8A704D" font-family="OpenSans-Regular, Open Sans" font-size="14" font-weight="normal"><tspan x="340" y="49">Server</tspan></text><path id="Line" stroke="#979797" stroke-linecap="square" d="M67 81v250.5M363 81v251.5"/><path id="Line" fill="#EE6B47" fill-rule="nonzero" d="M349 133l14 7-14 7v-6H68v-2h281v-6z"/><path id="Line-Copy" fill="#EE6B47" fill-rule="nonzero" d="M83 204v6h281v2H83v6l-14-7 14-7z"/><text id="HTTP-request" fill="#8A704D" font-family="OpenSans-Regular, Open Sans" font-size="14" font-weight="normal"><tspan x="172.015" y="130">HTTP-request</tspan></text><text id="&quot;Hey,-server,-let's" fill="#8A704D" font-family="OpenSans-Regular, Open Sans" font-size="14" font-weight="normal"><tspan x="103.375" y="161">&quot;Hey, server, let&apos;s talk WebSocket?&quot;</tspan></text><text id="HTTP-response-&quot;Okay!" fill="#8A704D" font-family="OpenSans-Regular, Open Sans" font-size="14" font-weight="normal"><tspan x="166.419" y="204">HTTP-response</tspan> <tspan x="191.972" y="226">&quot;Okay!&quot;</tspan></text><path id="Line-Copy-2" fill="#EE6B47" fill-rule="nonzero" d="M81 272v6h2v2h-2v6l-14-7 14-7zm268 0l14 7-14 7v-14zm-260 6v2h-4v-2h4zm6 0v2h-4v-2h4zm6 0v2h-4v-2h4zm6 0v2h-4v-2h4zm6 0v2h-4v-2h4zm6 0v2h-4v-2h4zm6 0v2h-4v-2h4zm6 0v2h-4v-2h4zm6 0v2h-4v-2h4zm6 0v2h-4v-2h4zm6 0v2h-4v-2h4zm6 0v2h-4v-2h4zm6 0v2h-4v-2h4zm6 0v2h-4v-2h4zm6 0v2h-4v-2h4zm6 0v2h-4v-2h4zm6 0v2h-4v-2h4zm6 0v2h-4v-2h4zm6 0v2h-4v-2h4zm6 0v2h-4v-2h4zm6 0v2h-4v-2h4zm6 0v2h-4v-2h4zm6 0v2h-4v-2h4zm6 0v2h-4v-2h4zm6 0v2h-4v-2h4zm6 0v2h-4v-2h4zm6 0v2h-4v-2h4zm6 0v2h-4v-2h4zm6 0v2h-4v-2h4zm6 0v2h-4v-2h4zm6 0v2h-4v-2h4zm6 0v2h-4v-2h4zm6 0v2h-4v-2h4zm6 0v2h-4v-2h4zm6 0v2h-4v-2h4zm6 0v2h-4v-2h4zm6 0v2h-4v-2h4zm6 0v2h-4v-2h4zm6 0v2h-4v-2h4zm6 0v2h-4v-2h4zm6 0v2h-4v-2h4zm6 0v2h-4v-2h4zm6 0v2h-4v-2h4zm6 0v2h-4v-2h4z"/><text id="WebSocket-protocol" fill="#8A704D" font-family="OpenSans-Regular, Open Sans" font-size="14" font-weight="normal"><tspan x="152.024" y="272">WebSocket protocol</tspan></text></g></g></svg>

<?xml version="1.0" encoding="UTF-8"?>
<svg width="429px" height="348px" viewBox="0 0 429 348" version="1.1" xmlns="http://www.w3.org/2000/svg" xmlns:xlink="http://www.w3.org/1999/xlink">
    <!-- Generator: sketchtool 61.2 (101010) - https://sketch.com -->
    <title>websocket-handshake.svg</title>
    <desc>Created with sketchtool.</desc>
    <g id="network" stroke="none" stroke-width="1" fill="none" fill-rule="evenodd">
        <g id="websocket-handshake.svg">
            <rect id="Rectangle-227" stroke="#E8C48E" stroke-width="2" fill="#FFF9EB" x="2" y="16" width="128" height="64"></rect>
            <text id="Browser" font-family="Helvetica" font-size="14" font-weight="normal" fill="#8A704D">
                <tspan x="40" y="48">Browser</tspan>
            </text>
            <rect id="Rectangle-228" stroke="#E8C48E" stroke-width="2" fill="#FFF9EB" x="298" y="16" width="128" height="64"></rect>
            <text id="Server" font-family="Helvetica" font-size="14" font-weight="normal" fill="#8A704D">
                <tspan x="340" y="48">Server</tspan>
            </text>
            <line x1="67" y1="81" x2="67" y2="331.5" id="Line" stroke="#979797" stroke-linecap="square"></line>
            <line x1="363" y1="81" x2="363" y2="332.5" id="Line" stroke="#979797" stroke-linecap="square"></line>
            <path id="Line" d="M349,133 L363,140 L349,147 L349,141 L68,141 L68,139 L349,139 L349,133 Z" fill="#EE6B47" fill-rule="nonzero"></path>
            <path id="Line-Copy" d="M83,204 L83,210 L364,210 L364,212 L83,212 L83,218 L69,211 L83,204 Z" fill="#EE6B47" fill-rule="nonzero"></path>
            <text id="HTTP-request" font-family="Helvetica" font-size="14" font-weight="normal" line-spacing="22" fill="#8A704D">
                <tspan x="172.544922" y="129">HTTP-request</tspan>
            </text>
            <text id="&quot;Hey,-server,-let's" font-family="Helvetica" font-size="14" font-weight="normal" line-spacing="22" fill="#8A704D">
                <tspan x="105.678223" y="160">"Hey, server, let's talk WebSocket?"</tspan>
            </text>
            <text id="HTTP-response-&quot;Okay!" font-family="Helvetica" font-size="14" font-weight="normal" line-spacing="22" fill="#8A704D">
                <tspan x="166.59668" y="203">HTTP-response</tspan>
                <tspan x="192.747559" y="225">"Okay!"</tspan>
            </text>
            <path id="Line-Copy-2" d="M81,272 L81,278 L83,278 L83,280 L81,280 L81,286 L67,279 L81,272 Z M349,272 L363,279 L349,286 L349,272 Z M89,278 L89,280 L85,280 L85,278 L89,278 Z M95,278 L95,280 L91,280 L91,278 L95,278 Z M101,278 L101,280 L97,280 L97,278 L101,278 Z M107,278 L107,280 L103,280 L103,278 L107,278 Z M113,278 L113,280 L109,280 L109,278 L113,278 Z M119,278 L119,280 L115,280 L115,278 L119,278 Z M125,278 L125,280 L121,280 L121,278 L125,278 Z M131,278 L131,280 L127,280 L127,278 L131,278 Z M137,278 L137,280 L133,280 L133,278 L137,278 Z M143,278 L143,280 L139,280 L139,278 L143,278 Z M149,278 L149,280 L145,280 L145,278 L149,278 Z M155,278 L155,280 L151,280 L151,278 L155,278 Z M161,278 L161,280 L157,280 L157,278 L161,278 Z M167,278 L167,280 L163,280 L163,278 L167,278 Z M173,278 L173,280 L169,280 L169,278 L173,278 Z M179,278 L179,280 L175,280 L175,278 L179,278 Z M185,278 L185,280 L181,280 L181,278 L185,278 Z M191,278 L191,280 L187,280 L187,278 L191,278 Z M197,278 L197,280 L193,280 L193,278 L197,278 Z M203,278 L203,280 L199,280 L199,278 L203,278 Z M209,278 L209,280 L205,280 L205,278 L209,278 Z M215,278 L215,280 L211,280 L211,278 L215,278 Z M221,278 L221,280 L217,280 L217,278 L221,278 Z M227,278 L227,280 L223,280 L223,278 L227,278 Z M233,278 L233,280 L229,280 L229,278 L233,278 Z M239,278 L239,280 L235,280 L235,278 L239,278 Z M245,278 L245,280 L241,280 L241,278 L245,278 Z M251,278 L251,280 L247,280 L247,278 L251,278 Z M257,278 L257,280 L253,280 L253,278 L257,278 Z M263,278 L263,280 L259,280 L259,278 L263,278 Z M269,278 L269,280 L265,280 L265,278 L269,278 Z M275,278 L275,280 L271,280 L271,278 L275,278 Z M281,278 L281,280 L277,280 L277,278 L281,278 Z M287,278 L287,280 L283,280 L283,278 L287,278 Z M293,278 L293,280 L289,280 L289,278 L293,278 Z M299,278 L299,280 L295,280 L295,278 L299,278 Z M305,278 L305,280 L301,280 L301,278 L305,278 Z M311,278 L311,280 L307,280 L307,278 L311,278 Z M317,278 L317,280 L313,280 L313,278 L317,278 Z M323,278 L323,280 L319,280 L319,278 L323,278 Z M329,278 L329,280 L325,280 L325,278 L329,278 Z M335,278 L335,280 L331,280 L331,278 L335,278 Z M341,278 L341,280 L337,280 L337,278 L341,278 Z M347,278 L347,280 L343,280 L343,278 L347,278 Z" fill="#EE6B47" fill-rule="nonzero"></path>
            <text id="WebSocket-protocol" font-family="Helvetica" font-size="14" font-weight="normal" fill="#8A704D">
                <tspan x="154.481934" y="271">WebSocket protocol</tspan>
            </text>
        </g>
    </g>
</svg>
